christians-website/frontend/static/images/BarfriendsApp/barfriendsIcon.svg

<svg height="226" viewBox="0 0 226 226" width="226" xmlns="http://www.w3.org/2000/svg"><g fill="none" fill-rule="evenodd"><rect fill="#070707" fill-rule="nonzero" height="226" rx="42" width="226"/><g fill="#f87000" transform="translate(28.906977 55.186047)"><g transform="translate(44.674419)"><path d="m14.9572578 53.2085054c9.4631282 0 14.9572578-11.9663133 14.9572578-26.6465745 0-14.6802611-5.5802217-26.53631409-14.9572578-26.56188847-9.37703613-.02557438-14.9572578 11.51280827-14.9572578 26.56188847 0 15.0490803 5.49412957 26.6465745 14.9572578 26.6465745z"/><path d="m57.7382317 53.2085054c9.4631283 0 14.9572578-11.9663133 14.9572578-26.6465745 0-14.6802611-5.5802216-26.53631409-14.9572578-26.56188847-9.3770361-.02557438-14.9572578 11.51280827-14.9572578 26.56188847 0 15.0490803 5.4941296 26.6465745 14.9572578 26.6465745z" transform="matrix(-1 0 0 1 115.476464 0)"/></g><path d="m4.2758376 59.6031479c.57734564-1.2442008 1.98341967-4.3365928 6.3685505-4.4104801.7538722-.0304551 1.7894202.1836913 2.9046061.6852837 6.8368637 4.3208823 33.8333953 22.1793226 70.9655548 21.1513415 5.2903737.045925 36.389478-.2492907 66.670339-20.6511261 1.822181-1.2189253 3.385051-1.307844 4.808523-1.1116118 2.411246.4587989 4.182036 1.7730946 5.205697 4.2060997 1.680539 5.1943932 2.832661 11.9451954 4.330802 16.4407785.16881.5283488-.429661 1.6108166-1.522385 1.0175526-1.30952-1.0941445-6.794225-8.5833046-7.811046-9.9649051-.783698-.9548252-1.760964-.6902694-2.156618-.3911686-6.769289 10.1450667-24.136706 45.8940318-71.1273626 46.4250878-48.1029312-.653083-64.8789615-37.0865667-71.3927654-46.4250878-.4016097-.2744229-1.4314725-.6557337-2.30821876.5776992-2.47233253 3.3579098-6.42355405 8.6916002-7.66064891 9.7783745-.75648933.4366184-1.68207188 0-1.53539412-.9903256.62949101-2.021635 2.3598174-9.6254424 4.26036639-16.3375124z" transform="matrix(-1 0 0 1 165.55814 0)"/></g></g></svg>

<?xml version="1.0" encoding="UTF-8"?>
<svg width="226px" height="226px" viewBox="0 0 226 226" version="1.1" xmlns="http://www.w3.org/2000/svg" xmlns:xlink="http://www.w3.org/1999/xlink">
    <!-- Generator: Sketch 52.5 (67469) - http://www.bohemiancoding.com/sketch -->
    <title>BarfriendsAppIcon</title>
    <desc>Created with Sketch.</desc>
    <g id="Instagram-Ads" stroke="none" stroke-width="1" fill="none" fill-rule="evenodd">
        <g id="NightclubApp" transform="translate(-964.000000, -102.000000)">
            <g id="BarfriendsAppIcon" transform="translate(964.000000, 102.000000)">
                <rect id="Rectangle" fill="#070707" fill-rule="nonzero" x="0" y="0" width="226" height="226" rx="42"></rect>
                <g id="smile" transform="translate(28.906977, 55.186047)" fill="#F87000">
                    <g id="eyes" transform="translate(44.674419, 0.000000)">
                        <path d="M14.9572578,53.2085054 C24.420386,53.2085054 29.9145156,41.2421921 29.9145156,26.5619309 C29.9145156,11.8816698 24.3342939,0.0256168098 14.9572578,4.24303421e-05 C5.58022167,-0.0255319491 0,11.5128507 0,26.5619309 C5.18073919e-16,41.6110112 5.49412957,53.2085054 14.9572578,53.2085054 Z" id="Oval-3-Copy-6"></path>
                        <path d="M57.7382317,53.2085054 C67.20136,53.2085054 72.6954895,41.2421921 72.6954895,26.5619309 C72.6954895,11.8816698 67.1152679,0.0256168098 57.7382317,4.24303421e-05 C48.3611956,-0.0255319491 42.7809739,11.5128507 42.7809739,26.5619309 C42.7809739,41.6110112 48.2751035,53.2085054 57.7382317,53.2085054 Z" id="Oval-3-Copy-7" transform="translate(57.738232, 26.604253) scale(-1, 1) translate(-57.738232, -26.604253) "></path>
                    </g>
                    <path d="M4.2758376,59.6031479 C4.85318324,58.3589471 6.25925727,55.2665551 10.6443881,55.1926678 C11.3982603,55.1622127 12.4338083,55.3763591 13.5489942,55.8779515 C20.3858579,60.1988338 47.3823895,78.0572741 84.514549,77.029293 C89.8049227,77.075218 120.904027,76.7800023 151.184888,56.3781669 C153.007069,55.1592416 154.569939,55.0703229 155.993411,55.2665551 C158.404657,55.725354 160.175447,57.0396497 161.199108,59.4726548 C162.879647,64.667048 164.031769,71.4178502 165.52991,75.9134333 C165.69872,76.4417821 165.100249,77.5242499 164.007525,76.9309859 C162.698005,75.8368414 157.2133,68.3476813 156.196479,66.9660808 C155.412781,66.0112556 154.435515,66.2758114 154.039861,66.5749122 C147.270572,76.7199789 129.903155,112.468944 82.9124984,113 C34.8095672,112.346917 18.0335369,75.9134333 11.519733,66.5749122 C11.1181233,66.3004893 10.0882605,65.9191785 9.21151424,67.1526114 C6.73918171,70.5105212 2.78796019,75.8442116 1.55086533,76.9309859 C0.794376001,77.3676043 -0.131206548,76.9309859 0.0154712108,75.9406603 C0.644962221,73.9190253 2.37528861,66.3152179 4.2758376,59.6031479 Z" id="Path-34-Copy-3" transform="translate(82.779070, 84.093023) scale(-1, 1) translate(-82.779070, -84.093023) "></path>
                </g>
            </g>
        </g>
    </g>
</svg>
